!!!OTL: Bolboreta
**kern
*clefG^2
*k[b-]
*F:
*M3/4
=1
!LO:TX:a:B:t=Presto
4r
8ccL
8ffJ
8aaL
8cccJ
=||
8bb-L
8dddJ
8bb-L
8ggJ
8ffL
8eeJ
=
8aaL
8cccJ
4ff
8aaL
8ffJ
=
8ggL
8aaJ
8bb-L
8ggJ
8ffL
8eeJ
=
8ddL
8eeJ
8ffL
8ggJ
8ddL
8eeJ
=
8ddL
8ccJ
8ccL
8ffJ
8aaL
8cccJ
=
8bb-L
8dddJ
8bb-L
8ggJ
8ffL
8eeJ
=
8aaL
8cccJ
4ff
8aaL
8ffJ
=
8ggL
8aaJ
8bb-L
8ggJ
8eeL
8ddJ
=
[2.cc
=
4cc]
8ccL
8ffJ
8aaL
8cccJ
=
8bb-L
8dddJ
8bb-L
8ggJ
8ffL
8eeJ
=
8aaL
8cccJ
4ff
8aaL
8ffJ
=
8ggL
8aaJ
8bb-L
8ggJ
8ffL
8eeJ
=
8ddL
8eeJ
8ffL
8ggJ
8ddL
8eeJ
=
8ddL
8ccJ
8ccL
8ffJ
8aaL
8cccJ
=
8bb-L
8dddJ
8bb-L
8ggJ
8ffL
8eeJ
=
8aaL
8cccJ
4ff
8aaL
8ffJ
=
8ggL
8aaJ
8bb-L
8eeJ
8ddL
8ccJ
=
4ff
8ccL
8ddJ
12eeL
12ff
12ggJ
=
4aa
12ccL
12dd
12eeJ
12ffL
12gg
12aaJ
=
4bb-
14ccL
14dd
14ee
14ff
14gg
14aa
14bb-J
=
4aa
14ccL
14dd
14ee
14ff
14gg
14aa
14bb-J
=
4ccc
4bb-
4aa
=
8aaL
8ggJ
8ff#XL
8ggJ
8ffnL
8eeJ
=
4dd
4.gg
8ff
=
8ffL
8eeJ
8ffL
8eeJ
8ddL
8eeJ
=
12ddL
12ee
12ddJ
8ccL
8ddJ
12eeL
12ff
12ggJ
=
4aa
12ccL
12dd
12eeJ
12ffL
12gg
12aaJ
=
4bb-
14ccL
14dd
14ee
14ff
14gg
14aa
14bb-J
=
4aa
14ccL
14dd
14ee
14ff
14gg
14aa
14bb-J
=
4ccc
4bb-
4aa
=
8aaL
8ggJ
8ff#XL
8ggJ
[4ddd
=
4ddd]
4gg
4ff
=
8ffL
8eeJ
8ee-XL
8eenJ
[4ccc
=
4ccc]
8ccL
8ddJ
12eeL
12ff
12ggJ
=
4aa
12ccL
12dd
12eeJ
12ffL
12gg
12aaJ
=
4bb-
14ccL
14dd
14ee
14ff
14gg
14aa
14bb-J
=
4aa
14ccL
14dd
14ee
14ff
14gg
14aa
14bb-J
=
4ccc
4bb-
4aa
=
8aaL
8ggJ
8ff#XL
8ggJ
8ffnL
8eeJ
=
4dd
4.gg
8ff
=
8ffL
8eeJ
8ffL
8eeJ
8eeL
8ddJ
=
8ddL
8ccJ
8ccL
8ddJ
12eeL
12ff
12ggJ
=
4aa
12ccL
12dd
12eeJ
12ffL
12gg
12aaJ
=
4bb-
14ccL
14dd
14ee
14ff
14gg
14aa
14bb-J
=
4aa
14ccL
14dd
14ee
14ff
14gg
14aa
14bb-J
=
4ccc
4bb-
4aa
=
8aaL
8ggJ
8ff#XL
8ggJ
8dddL
8bb-J
=
8ggL
8ffJ
8eeL
8ggJ
8ddL
8eeJ
=
[2.ff
=
4ff]
8ccL
8ffJ
8aaL
8cccJ
=||
8bb-L
8dddJ
8bb-L
8ggJ
8ffL
8eeJ
=
8aaL
8cccJ
4ff
8aaL
8ffJ
=
8ggL
8aaJ
8bb-L
8ggJ
8ffL
8eeJ
=
8ddL
8eeJ
8ffL
8ggJ
8ddL
8eeJ
=
8ddL
8ccJ
8ccL
8ffJ
8aaL
8cccJ
=
8bb-L
8dddJ
8bb-L
8ggJ
8ffL
8eeJ
=
8aaL
8cccJ
4ff
8aaL
8ffJ
=
8ggL
8aaJ
8bb-L
8ggJ
8eeL
8ddJ
=
[2.cc
=
4cc]
8ccL
8ffJ
8aaL
8cccJ
=
8bb-L
8dddJ
8bb-L
8ggJ
8ffL
8eeJ
=
8aaL
8cccJ
4ff
8aaL
8ffJ
=
8ggL
8aaJ
8bb-L
8ggJ
8ffL
8eeJ
=
8ddL
8eeJ
8ffL
8ggJ
8ddL
8eeJ
=
8ddL
8ccJ
8ccL
8ffJ
8aaL
8cccJ
=
8bb-L
8dddJ
8bb-L
8ggJ
8ffL
8eeJ
=
8aaL
8cccJ
4ff
8aaL
8ffJ
=
8ggL
8aaJ
8bb-L
8eeJ
8ddL
8ccJ
=
4ff
8ccL
8ddJ
12eeL
12ff
12ggJ
=
4aa
12ccL
12dd
12eeJ
12ffL
12gg
12aaJ
=
4bb-
14ccL
14dd
14ee
14ff
14gg
14aa
14bb-J
=
4aa
14ccL
14dd
14ee
14ff
14gg
14aa
14bb-J
=
4ccc
4bb-
4aa
=
8aaL
8ggJ
8ff#XL
8ggJ
8ffnL
8eeJ
=
4dd
4.gg
8ff
=
8ffL
8eeJ
8ffL
8eeJ
8ddL
8eeJ
=
12ddL
12ee
12ddJ
8ccL
8ddJ
12eeL
12ff
12ggJ
=
4aa
12ccL
12dd
12eeJ
12ffL
12gg
12aaJ
=
4bb-
14ccL
14dd
14ee
14ff
14gg
14aa
14bb-J
=
4aa
14ccL
14dd
14ee
14ff
14gg
14aa
14bb-J
=
4ccc
4bb-
4aa
=
8aaL
8ggJ
8ff#XL
8ggJ
[4ddd
=
4ddd]
4gg
4ff
=
8ffL
8eeJ
8ee-XL
8eenJ
[4ccc
=
4ccc]
8ccL
8ddJ
12eeL
12ff
12ggJ
=
4aa
12ccL
12dd
12eeJ
12ffL
12gg
12aaJ
=
4bb-
14ccL
14dd
14ee
14ff
14gg
14aa
14bb-J
=
4aa
14ccL
14dd
14ee
14ff
14gg
14aa
14bb-J
=
4ccc
4bb-
4aa
=
8aaL
8ggJ
8ff#XL
8ggJ
8ffnL
8eeJ
=
4dd
4.gg
8ff
=
8ffL
8eeJ
8ffL
8eeJ
8eeL
8ddJ
=
8ddL
8ccJ
8ccL
8ddJ
12eeL
12ff
12ggJ
=
4aa
12ccL
12dd
12eeJ
12ffL
12gg
12aaJ
=
4bb-
14ccL
14dd
14ee
14ff
14gg
14aa
14bb-J
=
4aa
14ccL
14dd
14ee
14ff
14gg
14aa
14bb-J
=
4ccc
4bb-
4aa
=
8aaL
8ggJ
8ff#XL
8ggJ
8dddL
8bb-J
=
8ggL
8ffJ
8eeL
8ggJ
8ddL
8eeJ
=
[2.ff
=||
8ffL]
8aaJ
8ggL
8ffJ
8eeL
8ddJ
=
8ccL
8eeJ
8ggL
8bb-J
8dddL
8eeeJ
=
8cccL
8aaJ
[2ccc
=
8ccc;L]
8aaJ
8ggL
8ffJ
8eeL
8ddJ
=
8ccL
8eeJ
8ggL
8bb-J
8cccL
8dddJ
=
8aaL
8ffJ
[2aa
=
4.aa;]
8aa
8aa-XL
8aanJ
=
8bb-L
8aaJ
8aaL
8ggJ
8ggL
8ff#XJ
=||
*M2/2
*met(c|)
4aa
4.gg;
8ggL
8ff#X
8ggJ
=||
*M3/4
8aaL
8ggJ
8ggL
8ffJ
8ffL
8eeJ
=
4gg
4.ff;
8ff
=||
*M2/2
*met(c|)
8aaL
8ee
8gg
8ddJ
8ffL
8cc
8ee
8ddJ
=
4dd
2cc
8eeL
8ddJ
=
4dd
2cc
8eeL
8ddJ
=||
*M3/4
8ddL
8eeJ
[2cc
=
8cc;L]
8aaJ
8ggL
8ffJ
8eeL
8ddJ
=
8ccL
8eeJ
8ggL
8bb-J
8dddL
8eeeJ
=
8cccL
8aaJ
[2ccc
=
8ccc;L]
8aaJ
8ggL
8ffJ
8eeL
8ddJ
=
8ccL
8eeJ
8ggL
8bb-J
8cccL
8dddJ
=
8aaL
8ffJ
[2aa
=
4.aa;]
8aa
8bb-L
8ggJ
=||
*M2/2
*met(c|)
8ff#XL
8aa
8ccc
8eee-XJ
8dddL
8cccJ
4ccc
=||
*M3/4
2bb-
8ggL
8ffJ
=||
*M2/2
*met(c|)
8eeL
8gg
8bb-
8dddJ
8cccL
8bb-J
4bb-
=||
*M3/4
2aa
8ffL
8eeJ
=
8ee-XL
8ggJ
8bb-L
8ddJ
8ff#XL
8aaJ
=
4aa
4gg
8aaL
8eeJ
=||
!LO:TX:a:B:t=ritardando
4gg
4ff
8ggL
8ddJ
=
8ffL
8eeJ
8ggL
8eeJ
8ffL
8ddJ
=
8eeL
8ccJ
8ccL
8ddJ
8ccL
8eeJ
=
[2.ff
=||
!LO:TX:a:B:t=Presto
8ff;]
8r
8ccL
8ffJ
8aaL
8cccJ
==
*-
